flaticon/household/sewing-machine.svg

<svg xmlns="http://www.w3.org/2000/svg" width="32" height="32" viewBox="0 0 24 24">
    <path d="M 23.601562 5.199219 L 21.601562 5.199219 L 21.601562 1.601562 C 21.601562 1.378906 21.421875 1.199219 21.199219 1.199219 L 18.800781 1.199219 L 18.800781 0.398438 C 18.800781 0.179688 18.621094 0 18.398438 0 L 16.398438 0 C 16.179688 0 16 0.179688 16 0.398438 L 16 1.199219 L 15.199219 1.199219 L 15.199219 0.398438 C 15.199219 0.179688 15.019531 0 14.800781 0 L 12.800781 0 C 12.578125 0 12.398438 0.179688 12.398438 0.398438 L 12.398438 1.199219 L 1.601562 1.199219 C 1.378906 1.199219 1.199219 1.378906 1.199219 1.601562 L 1.199219 10 C 1.199219 10.222656 1.378906 10.398438 1.601562 10.398438 L 4.398438 10.398438 L 4.398438 13.601562 L 4.199219 13.601562 C 3.648438 13.601562 3.199219 14.046875 3.199219 14.601562 C 3.199219 15.152344 3.648438 15.601562 4.199219 15.601562 L 5.199219 15.601562 L 5.199219 16.398438 C 5.199219 16.621094 5.378906 16.800781 5.601562 16.800781 C 5.820312 16.800781 6 16.621094 6 16.398438 L 6 15.601562 L 7 15.601562 C 7.550781 15.601562 8 15.152344 8 14.601562 C 8 14.046875 7.550781 13.601562 7 13.601562 L 6.800781 13.601562 L 6.800781 10.398438 L 9.199219 10.398438 C 9.421875 10.398438 9.601562 10.222656 9.601562 10 L 9.601562 8.398438 L 12.800781 8.398438 L 12.800781 17.601562 L 2.269531 17.601562 C 1.019531 17.601562 0 18.617188 0 19.871094 L 0 21.730469 C 0 22.980469 1.019531 24 2.269531 24 L 21.199219 24 C 21.421875 24 21.601562 23.820312 21.601562 23.601562 L 21.601562 10.800781 L 23.601562 10.800781 C 23.820312 10.800781 24 10.621094 24 10.398438 L 24 5.601562 C 24 5.378906 23.820312 5.199219 23.601562 5.199219 Z M 16.800781 0.800781 L 18 0.800781 L 18 1.199219 L 16.800781 1.199219 Z M 13.199219 0.800781 L 14.398438 0.800781 L 14.398438 1.199219 L 13.199219 1.199219 Z M 2 2 L 3.601562 2 L 3.601562 7.199219 L 2 7.199219 Z M 7.199219 14.601562 C 7.199219 14.710938 7.109375 14.800781 7 14.800781 L 4.199219 14.800781 C 4.089844 14.800781 4 14.710938 4 14.601562 C 4 14.488281 4.089844 14.398438 4.199219 14.398438 L 7 14.398438 C 7.109375 14.398438 7.199219 14.488281 7.199219 14.601562 Z M 6 13.601562 L 5.199219 13.601562 L 5.199219 10.398438 L 6 10.398438 Z M 9.199219 7.601562 C 8.980469 7.601562 8.800781 7.777344 8.800781 8 L 8.800781 9.601562 L 2 9.601562 L 2 8 L 4 8 C 4.222656 8 4.398438 7.820312 4.398438 7.601562 L 4.398438 2 L 20.800781 2 L 20.800781 7.601562 Z M 8 18.398438 L 8 19.199219 L 3.199219 19.199219 L 3.199219 18.398438 Z M 20.800781 23.199219 L 2.269531 23.199219 C 1.457031 23.199219 0.800781 22.542969 0.800781 21.730469 L 0.800781 19.871094 C 0.800781 19.058594 1.457031 18.398438 2.269531 18.398438 L 2.398438 18.398438 L 2.398438 19.601562 C 2.398438 19.820312 2.578125 20 2.800781 20 L 8.398438 20 C 8.621094 20 8.800781 19.820312 8.800781 19.601562 L 8.800781 18.398438 L 13.199219 18.398438 C 13.421875 18.398438 13.601562 18.222656 13.601562 18 L 13.601562 8.398438 L 20.800781 8.398438 Z M 21.601562 10 L 21.601562 6 L 23.199219 6 L 23.199219 6.398438 L 22.398438 6.398438 C 22.179688 6.398438 22 6.578125 22 6.800781 C 22 7.019531 22.179688 7.199219 22.398438 7.199219 L 23.199219 7.199219 L 23.199219 7.601562 L 22.398438 7.601562 C 22.179688 7.601562 22 7.777344 22 8 C 22 8.222656 22.179688 8.398438 22.398438 8.398438 L 23.199219 8.398438 L 23.199219 8.800781 L 22.398438 8.800781 C 22.179688 8.800781 22 8.980469 22 9.199219 C 22 9.421875 22.179688 9.601562 22.398438 9.601562 L 23.199219 9.601562 L 23.199219 10 Z M 21.601562 10"/>
    <path d="M19.179688 10.019531C19.175781 10.019531 19.175781 10.019531 19.171875 10.015625 18.667969 9.511719 17.96875 9.199219 17.199219 9.199219 16.429688 9.199219 15.734375 9.511719 15.226562 10.015625 15.222656 10.019531 15.222656 10.019531 15.21875 10.019531 15.21875 10.023438 15.21875 10.023438 15.214844 10.027344 14.710938 10.53125 14.398438 11.230469 14.398438 12 14.398438 12.769531 14.710938 13.46875 15.214844 13.972656 15.21875 13.976562 15.21875 13.976562 15.21875 13.980469 15.222656 13.980469 15.226562 13.980469 15.226562 13.984375 15.734375 14.488281 16.429688 14.800781 17.199219 14.800781 17.96875 14.800781 18.667969 14.488281 19.171875 13.984375 19.175781 13.980469 19.179688 13.980469 19.179688 13.980469 19.179688 13.976562 19.183594 13.976562 19.183594 13.972656 19.6875 13.46875 20 12.769531 20 12 20 11.230469 19.6875 10.53125 19.183594 10.027344 19.183594 10.023438 19.179688 10.023438 19.179688 10.019531zM18.800781 12.398438L19.160156 12.398438C19.109375 12.65625 19.007812 12.890625 18.867188 13.101562L18.613281 12.847656C18.457031 12.691406 18.203125 12.691406 18.046875 12.847656 17.890625 13.003906 17.890625 13.257812 18.046875 13.414062L18.300781 13.667969C18.089844 13.804688 17.855469 13.90625 17.601562 13.960938L17.601562 13.601562C17.601562 13.378906 17.421875 13.199219 17.199219 13.199219 16.980469 13.199219 16.800781 13.378906 16.800781 13.601562L16.800781 13.960938C16.546875 13.90625 16.308594 13.804688 16.097656 13.667969L16.351562 13.414062C16.507812 13.257812 16.507812 13.003906 16.351562 12.847656 16.195312 12.691406 15.941406 12.691406 15.785156 12.847656L15.53125 13.101562C15.394531 12.890625 15.292969 12.65625 15.242188 12.398438L15.601562 12.398438C15.820312 12.398438 16 12.222656 16 12 16 11.777344 15.820312 11.601562 15.601562 11.601562L15.242188 11.601562C15.292969 11.34375 15.394531 11.109375 15.53125 10.898438L15.785156 11.152344C15.863281 11.230469 15.964844 11.269531 16.070312 11.269531 16.171875 11.269531 16.273438 11.230469 16.351562 11.152344 16.507812 10.996094 16.507812 10.742188 16.351562 10.585938L16.097656 10.332031C16.308594 10.195312 16.546875 10.09375 16.800781 10.039062L16.800781 10.398438C16.800781 10.621094 16.980469 10.800781 17.199219 10.800781 17.421875 10.800781 17.601562 10.621094 17.601562 10.398438L17.601562 10.039062C17.855469 10.09375 18.089844 10.195312 18.300781 10.332031L18.046875 10.585938C17.890625 10.742188 17.890625 10.996094 18.046875 11.152344 18.125 11.230469 18.230469 11.269531 18.332031 11.269531 18.433594 11.269531 18.535156 11.230469 18.613281 11.152344L18.867188 10.898438C19.007812 11.109375 19.109375 11.34375 19.160156 11.601562L18.800781 11.601562C18.578125 11.601562 18.398438 11.777344 18.398438 12 18.398438 12.222656 18.578125 12.398438 18.800781 12.398438zM15.601562 16L14.800781 16C14.578125 16 14.398438 16.179688 14.398438 16.398438 14.398438 16.621094 14.578125 16.800781 14.800781 16.800781L15.601562 16.800781C15.820312 16.800781 16 16.621094 16 16.398438 16 16.179688 15.820312 16 15.601562 16zM15.601562 17.199219L14.800781 17.199219C14.578125 17.199219 14.398438 17.378906 14.398438 17.601562 14.398438 17.820312 14.578125 18 14.800781 18L15.601562 18C15.820312 18 16 17.820312 16 17.601562 16 17.378906 15.820312 17.199219 15.601562 17.199219zM19.601562 16L18.800781 16C18.578125 16 18.398438 16.179688 18.398438 16.398438 18.398438 16.621094 18.578125 16.800781 18.800781 16.800781L19.601562 16.800781C19.820312 16.800781 20 16.621094 20 16.398438 20 16.179688 19.820312 16 19.601562 16zM19.601562 17.199219L18.800781 17.199219C18.578125 17.199219 18.398438 17.378906 18.398438 17.601562 18.398438 17.820312 18.578125 18 18.800781 18L19.601562 18C19.820312 18 20 17.820312 20 17.601562 20 17.378906 19.820312 17.199219 19.601562 17.199219zM17.601562 16L16.800781 16C16.578125 16 16.398438 16.179688 16.398438 16.398438 16.398438 16.621094 16.578125 16.800781 16.800781 16.800781L17.601562 16.800781C17.820312 16.800781 18 16.621094 18 16.398438 18 16.179688 17.820312 16 17.601562 16zM17.601562 17.199219L16.800781 17.199219C16.578125 17.199219 16.398438 17.378906 16.398438 17.601562 16.398438 17.820312 16.578125 18 16.800781 18L17.601562 18C17.820312 18 18 17.820312 18 17.601562 18 17.378906 17.820312 17.199219 17.601562 17.199219zM17.601562 17.199219"/>
</svg>

<svg xmlns="http://www.w3.org/2000/svg" width="32" height="32" viewBox="0 0 24 24">
    <path d="M23.602 5.2h-2V1.601a.402.402 0 0 0-.403-.403h-2.398V.4A.401.401 0 0 0 18.398 0h-2A.4.4 0 0 0 16 .398V1.2h-.8V.4A.4.4 0 0 0 14.8 0h-2a.401.401 0 0 0-.402.398V1.2H1.602a.402.402 0 0 0-.403.403V10c0 .223.18.398.403.398h2.796v3.204H4.2a1 1 0 1 0 0 2h1v.796a.401.401 0 0 0 .8 0l.001-.796h1a1 1 0 1 0 0-2h-.2v-3.204h2.4A.398.398 0 0 0 9.601 10V8.398H12.8v9.204H2.27A2.271 2.271 0 0 0 0 19.872v1.858C0 22.98 1.02 24 2.27 24H21.2c.222 0 .402-.18.402-.398V10.8h2c.218 0 .398-.18.398-.403V5.602a.401.401 0 0 0-.398-.403zM16.8.8H18v.4h-1.2zm-3.602 0h1.2v.4h-1.2zM2 2h1.602v5.2H2zm5.2 12.602a.2.2 0 0 1-.2.199H4.2a.2.2 0 1 1 0-.402H7c.11 0 .2.09.2.203zm-1.2-1h-.8v-3.204H6zm3.2-6A.398.398 0 0 0 8.8 8v1.602H2V8h2c.223 0 .398-.18.398-.398V2h16.403v5.602zM8 18.398v.801H3.2v-.8zM20.8 23.2H2.27A1.467 1.467 0 0 1 .8 21.73v-1.859a1.47 1.47 0 0 1 1.47-1.473h.128v1.204c0 .218.18.398.403.398h5.597c.223 0 .403-.18.403-.398v-1.204h4.398a.398.398 0 0 0 .403-.398V8.398H20.8zM21.603 10V6h1.597v.398h-.8a.401.401 0 0 0 0 .801h.8v.403h-.8a.398.398 0 1 0 0 .796h.8v.403h-.8a.4.4 0 0 0 0 .8h.8V10zm0 0"/>
    <path d="M19.18 10.02c-.004 0-.004 0-.008-.004a2.791 2.791 0 0 0-3.945 0c-.004.004-.004.004-.008.004 0 .003 0 .003-.004.007A2.784 2.784 0 0 0 14.398 12c0 .77.313 1.469.817 1.973.004.004.004.004.004.007.004 0 .008 0 .008.004a2.791 2.791 0 0 0 3.945 0c.004-.004.008-.004.008-.004 0-.003.004-.003.004-.007A2.784 2.784 0 0 0 20 12c0-.77-.313-1.469-.816-1.973 0-.004-.004-.004-.004-.007zm-.38 2.378h.36c-.05.258-.152.493-.293.704l-.254-.254a.4.4 0 0 0-.566.566l.254.254c-.211.137-.446.238-.7.293v-.36a.401.401 0 0 0-.8 0v.36a2.114 2.114 0 0 1-.703-.293l.254-.254a.4.4 0 0 0-.567-.566l-.254.254a1.998 1.998 0 0 1-.289-.704h.36a.398.398 0 1 0 0-.796h-.36c.051-.258.153-.493.29-.704l.253.254a.399.399 0 0 0 .567 0 .4.4 0 0 0 0-.566l-.254-.254c.21-.137.449-.238.703-.293v.36a.401.401 0 1 0 .8 0v-.36c.254.055.489.156.7.293l-.254.254a.4.4 0 0 0 .566.566l.254-.254c.14.211.242.446.293.704h-.36a.398.398 0 1 0 0 .796zm0 0M15.602 16H14.8a.401.401 0 1 0 0 .8h.8a.401.401 0 0 0 0-.8zm0 0M15.602 17.2H14.8a.401.401 0 0 0 0 .8h.8a.4.4 0 0 0 0-.8zm0 0M19.602 16H18.8a.401.401 0 1 0 0 .8h.8a.401.401 0 0 0 0-.8zm0 0M19.602 17.2H18.8a.401.401 0 0 0 0 .8h.8a.4.4 0 0 0 0-.8zm0 0M17.602 16H16.8a.401.401 0 1 0 0 .8h.8a.401.401 0 0 0 0-.8zm0 0M17.602 17.2H16.8a.401.401 0 0 0 0 .8h.8a.4.4 0 0 0 0-.8zm0 0"/>
</svg>
